packages/components/src/product-icon/images/jetpack-crm-v2-darkblue.svg

<svg width="55" height="54" viewBox="0 0 55 54" fill="none" xmlns="http://www.w3.org/2000/svg">
<ellipse cx="27.5" cy="26.8603" rx="27.5" ry="26.8603" fill="#055d9c"/>
<mask id="mask0" mask-type="alpha" maskUnits="userSpaceOnUse" x="13" y="15" width="28" height="20">
<path fill-rule="evenodd" clip-rule="evenodd" d="M27 24.9998C29.5667 24.9998 31.6667 22.8998 31.6667 20.3332C31.6667 17.7665 29.5667 15.6665 27 15.6665C24.4333 15.6665 22.3333 17.7665 22.3333 20.3332C22.3333 22.8998 24.4333 24.9998 27 24.9998ZM20 23.8332H20.9333L21.6333 24.8832C19.1833 25.9332 17.0833 27.4498 16.0333 29.4332C14.4 29.1998 13 28.7332 13 28.0332C13 26.0498 16.3833 23.8332 20 23.8332ZM37.9667 29.4332C39.6 29.1998 41 28.7332 41 28.0332C41 26.0498 37.6167 23.8332 34 23.9498H33.0667C32.95 24.1248 32.8333 24.2707 32.7167 24.4165L32.7167 24.4165C32.6 24.5623 32.4833 24.7082 32.3667 24.8832C34.8167 25.9332 36.9167 27.4498 37.9667 29.4332ZM17.6667 31.9998C17.6667 29.1998 22.2167 26.1665 27 26.1665C31.7833 26.1665 36.3333 29.1998 36.3333 31.9998C36.3333 34.3332 27 34.3332 27 34.3332C27 34.3332 17.6667 34.3332 17.6667 31.9998ZM33.65 22.6665H34C35.9833 22.6665 37.5 21.1498 37.5 19.1665C37.5 17.1832 35.9833 15.6665 34 15.6665C33.4167 15.6665 32.95 15.7832 32.4833 16.0165C33.4167 17.1832 34 18.6998 34 20.3332C34 21.1498 33.8833 21.9665 33.65 22.6665ZM20.35 22.6665H20C18.0167 22.6665 16.5 21.1498 16.5 19.1665C16.5 17.1832 18.0167 15.6665 20 15.6665C20.5833 15.6665 21.05 15.7832 21.5167 16.0165C20.5833 17.1832 20 18.6998 20 20.3332C20 21.1498 20.1167 21.9665 20.35 22.6665Z" fill="white"/>
</mask>
<g mask="url(#mask0)">
<rect x="13" y="11" width="28" height="28" fill="white"/>
</g>
</svg>

<svg width="55" height="54" fill="none" xmlns="http://www.w3.org/2000/svg"><ellipse cx="27.5" cy="26.86" rx="27.5" ry="26.86" fill="#055d9c"/><mask id="a" maskUnits="userSpaceOnUse" x="13" y="15" width="28" height="20"><path fill-rule="evenodd" clip-rule="evenodd" d="M27 25a4.68 4.68 0 004.667-4.667A4.68 4.68 0 0027 15.667a4.68 4.68 0 00-4.667 4.666A4.68 4.68 0 0027 25zm-7-1.167h.933l.7 1.05c-2.45 1.05-4.55 2.567-5.6 4.55-1.633-.233-3.033-.7-3.033-1.4 0-1.983 3.383-4.2 7-4.2zm17.967 5.6c1.633-.233 3.033-.7 3.033-1.4 0-1.983-3.383-4.2-7-4.083h-.933c-.117.175-.234.32-.35.466a6.443 6.443 0 00-.35.467c2.45 1.05 4.55 2.567 5.6 4.55zM17.667 32c0-2.8 4.55-5.834 9.333-5.834S36.333 29.2 36.333 32c0 2.333-9.333 2.333-9.333 2.333s-9.333 0-9.333-2.333zm15.983-9.334H34c1.983 0 3.5-1.516 3.5-3.5 0-1.983-1.517-3.5-3.5-3.5a3.23 3.23 0 00-1.517.35A6.931 6.931 0 0134 20.334c0 .817-.117 1.634-.35 2.334zm-13.3 0H20c-1.983 0-3.5-1.516-3.5-3.5 0-1.983 1.517-3.5 3.5-3.5.583 0 1.05.117 1.517.35A6.931 6.931 0 0020 20.334c0 .817.117 1.634.35 2.334z" fill="#fff"/></mask><g mask="url(#a)"><path fill="#fff" d="M13 11h28v28H13z"/></g></svg>
